images_sukapura_svg/cmd/32/dbviewfunctions.svg

<svg viewBox="0 0 32 32" xmlns="http://www.w3.org/2000/svg" xmlns:xlink="http://www.w3.org/1999/xlink"><linearGradient id="a" gradientTransform="matrix(.79951909 0 0 .79951909 -1.770074 14.398087)" gradientUnits="userSpaceOnUse" x1="7" x2="7" xlink:href="#b" y1="22" y2="2"/><linearGradient id="b" gradientTransform="translate(-11 -1)" gradientUnits="userSpaceOnUse" x1="14" x2="13.79661" y1="22" y2="2.135593"><stop offset="0" stop-color="#0040dd"/><stop offset="1" stop-color="#0a84ff"/></linearGradient><linearGradient id="c" gradientTransform="matrix(.79951909 0 0 .79951909 -2.770074 14.398087)" gradientUnits="userSpaceOnUse" x1="18" x2="18" xlink:href="#b" y1="22" y2="12"/><path d="m1.0307693 31.987778 1.6820622-9.630832h-1.71283159l.25641189-1.466676h1.7025752l.1846165-1.312829q.2666684-1.671806 1.2923161-2.615402 1.0769301-.984621 2.7487358-.964108.5230803 0 1.3230855.17436l-.2256425 1.548728q-.4923109-.102565-.9948783-.123078-.9641088 0-1.5692409.605132-.5948757.594876-.7384663 1.589754l-.1641037 1.097443h2.2974508l-.2564119 1.466676h-2.2974508l-1.6718057 9.630832z" fill="url(#a)" transform="matrix(1.625774 0 0 1.625774 3.005842 -23.016554)"/><path d="m11.048956 26.613566 1.886732-2.619228h2.049508l-3.063164 4.025028 1.783146 3.980634h-1.834939l-1.117241-2.730212-1.9681201 2.730212h-2.0421096l3.1593508-4.143411-1.7239549-3.862251h1.8349388z" fill="url(#c)" transform="matrix(1.625774 0 0 1.625774 3.005842 -23.016554)"/></svg>

<?xml version="1.0" encoding="UTF-8" standalone="no"?>
<svg
   xmlns:dc="http://purl.org/dc/elements/1.1/"
   xmlns:cc="http://creativecommons.org/ns#"
   xmlns:rdf="http://www.w3.org/1999/02/22-rdf-syntax-ns#"
   xmlns:svg="http://www.w3.org/2000/svg"
   xmlns="http://www.w3.org/2000/svg"
   xmlns:xlink="http://www.w3.org/1999/xlink"
   xmlns:sodipodi="http://sodipodi.sourceforge.net/DTD/sodipodi-0.dtd"
   xmlns:inkscape="http://www.inkscape.org/namespaces/inkscape"
   viewBox="0 0 32 32"
   version="1.1"
   id="svg6"
   sodipodi:docname="dbviewfunctions.svg"
   inkscape:version="0.92.3 (unknown)">
  <metadata
     id="metadata12">
    <rdf:RDF>
      <cc:Work
         rdf:about="">
        <dc:format>image/svg+xml</dc:format>
        <dc:type
           rdf:resource="http://purl.org/dc/dcmitype/StillImage" />
        <dc:title></dc:title>
      </cc:Work>
    </rdf:RDF>
  </metadata>
  <defs
     id="defs10">
    <linearGradient
       gradientTransform="matrix(0.79951909,0,0,0.79951909,-1.7700739,14.398087)"
       inkscape:collect="always"
       xlink:href="#a"
       id="linearGradient853"
       x1="7"
       y1="22"
       x2="7"
       y2="2"
       gradientUnits="userSpaceOnUse" />
    <linearGradient
       gradientTransform="translate(-11,-1)"
       id="a"
       gradientUnits="userSpaceOnUse"
       x1="14"
       x2="13.79661"
       y1="22"
       y2="2.1355929">
      <stop
         offset="0"
         stop-color="#0040dd"
         id="stop1492" />
      <stop
         offset="1"
         stop-color="#0a84ff"
         id="stop1494" />
    </linearGradient>
    <linearGradient
       gradientTransform="matrix(0.79951909,0,0,0.79951909,-1.7700739,-1.6019135)"
       inkscape:collect="always"
       xlink:href="#a"
       id="linearGradient885"
       x1="7"
       y1="22"
       x2="7"
       y2="2"
       gradientUnits="userSpaceOnUse" />
    <linearGradient
       gradientTransform="matrix(0.79951909,0,0,0.79951909,-2.7700739,14.398087)"
       inkscape:collect="always"
       xlink:href="#a"
       id="linearGradient851"
       x1="18"
       y1="22"
       x2="18"
       y2="12"
       gradientUnits="userSpaceOnUse" />
    <linearGradient
       gradientTransform="matrix(0.79951909,0,0,0.79951909,-2.7700739,-1.6019135)"
       inkscape:collect="always"
       xlink:href="#a"
       id="linearGradient900"
       x1="18"
       y1="22"
       x2="18"
       y2="12"
       gradientUnits="userSpaceOnUse" />
    <linearGradient
       inkscape:collect="always"
       xlink:href="#a"
       id="linearGradient871"
       gradientUnits="userSpaceOnUse"
       gradientTransform="matrix(0.79951909,0,0,0.79951909,-1.7700739,14.398087)"
       x1="7"
       y1="22"
       x2="7"
       y2="2" />
    <linearGradient
       inkscape:collect="always"
       xlink:href="#a"
       id="linearGradient873"
       gradientUnits="userSpaceOnUse"
       gradientTransform="matrix(0.79951909,0,0,0.79951909,-2.7700739,14.398087)"
       x1="18"
       y1="22"
       x2="18"
       y2="12" />
  </defs>
  <sodipodi:namedview
     pagecolor="#ffffff"
     bordercolor="#666666"
     borderopacity="1"
     objecttolerance="10"
     gridtolerance="10"
     guidetolerance="10"
     inkscape:pageopacity="0"
     inkscape:pageshadow="2"
     inkscape:window-width="1366"
     inkscape:window-height="699"
     id="namedview8"
     showgrid="true"
     inkscape:zoom="7.375"
     inkscape:cx="-1.7983309"
     inkscape:cy="20.924365"
     inkscape:window-x="0"
     inkscape:window-y="0"
     inkscape:window-maximized="1"
     inkscape:current-layer="svg6">
    <inkscape:grid
       type="xygrid"
       id="grid822" />
  </sodipodi:namedview>
  <g
     id="text839"
     style="font-style:normal;font-weight:normal;font-size:21.00526428px;line-height:1.25;font-family:sans-serif;letter-spacing:0px;word-spacing:0px;fill:url(#linearGradient853);fill-opacity:1;stroke:none;stroke-width:0.52513152"
     aria-label="f"
     transform="matrix(1.625774,0,0,1.625774,3.0058418,-23.016554)">
    <path
       inkscape:connector-curvature="0"
       id="path865"
       style="font-style:italic;font-variant:normal;font-weight:normal;font-stretch:normal;font-family:Roboto;-inkscape-font-specification:'Roboto Italic';fill:url(#linearGradient871);fill-opacity:1;stroke-width:0.52513152"
       d="M 1.0307693,31.987778 2.7128315,22.356946 H 0.99999991 L 1.2564118,20.89027 H 2.958987 l 0.1846165,-1.312829 q 0.2666684,-1.671806 1.2923161,-2.615402 1.0769301,-0.984621 2.7487358,-0.964108 0.5230803,0 1.3230855,0.17436 l -0.2256425,1.548728 q -0.4923109,-0.102565 -0.9948783,-0.123078 -0.9641088,0 -1.5692409,0.605132 -0.5948757,0.594876 -0.7384663,1.589754 L 4.8154092,20.89027 H 7.11286 L 6.8564481,22.356946 H 4.5589973 l -1.6718057,9.630832 z" />
  </g>
  <g
     id="text843"
     style="font-style:normal;font-weight:normal;font-size:15.15304565px;line-height:1.25;font-family:sans-serif;letter-spacing:0px;word-spacing:0px;fill:url(#linearGradient851);fill-opacity:1;stroke:none;stroke-width:0.37882614"
     aria-label="x"
     transform="matrix(1.625774,0,0,1.625774,3.0058418,-23.016554)">
    <path
       inkscape:connector-curvature="0"
       id="path868"
       style="font-style:italic;font-variant:normal;font-weight:500;font-stretch:normal;font-family:Roboto;-inkscape-font-specification:'Roboto Medium Italic';fill:url(#linearGradient873);fill-opacity:1;stroke-width:0.37882614"
       d="m 11.048956,26.613566 1.886732,-2.619228 h 2.049508 L 11.922032,28.019366 13.705178,32 H 11.870239 L 10.752998,29.269788 8.7848779,32 H 6.7427683 L 9.9021191,27.856589 8.1781642,23.994338 h 1.8349388 z" />
  </g>
</svg>
